X:185
T: Muede kehrt ein Wanderer zurueck
N: D1016
O: Europa, Mitteleuropa, Oesterreich, Tirol, Schwaz
N: DVA-Signatur A 188 520
R: Liebes - Lied
M: 4/4
L: 1/16
K: G
B3A | G6G2G2F2G2B2 | D8z2
G2F2G2 | A6G2F2A2e3d | B8z2
G2G2A2 | B6d2c2B2A2G2 | E8z2
G2F2E2 | D6G2F3Ac3B | G8z2
G2G2A2 | B6d2c2B2A2G2 | E8z2
G2F2E2 | D6G2F3Ac3B | G8z4

